X: 067
T: Singing Sisters (jig)
N: 190213
C: BB
R: jig
Q: 1/8=340
M: 6/8
L: 1/8
K: G
A |"G"BdB "Am"AGA | "Em"Bee "C"gfe | "G"BdB "Am"AGA | "G"BGD "Em"E2 A |
"G"BdB "Am"AGA | "Em"Bde "C"gfg | "D"afd "D7"cAd | "G"BGF "G"G2 :|
 A |"Em"Bee "C"gfg | "G"bag "D"fed | "Em"Bee "Am"gag | "G"ged "Em"e2 A |
"Em"Bee "C"gfg | "G"bag "C"efg | "G"dcB "D7"Adc |"G"BGF "G"G2 :|
%%%%%%%%%%%%%%%%%%%%%%%%%%%%%%%%%%%%%%%%%%%
